cloudflare.svg

<svg viewBox="0 0 24 24" xmlns="http://www.w3.org/2000/svg"><path d="M16.5075 16.8447C16.6547 16.3389 16.5985 15.8733 16.3523 15.5282C16.1276 15.2124 15.7476 15.0278 15.29 15.0064L6.63084 14.894C6.57465 14.894 6.52648 14.8645 6.49705 14.8244C6.46761 14.7816 6.46226 14.7254 6.47564 14.6692C6.50507 14.5836 6.58803 14.522 6.67901 14.514L15.4158 14.4016C16.4487 14.3534 17.5752 13.5159 17.9686 12.4883L18.4689 11.1879C18.4904 11.1317 18.4984 11.0755 18.4823 11.0193C17.9231 8.47452 15.6512 6.57465 12.9352 6.57465C10.4306 6.57465 8.30594 8.19356 7.54599 10.4359C7.05363 10.0693 6.42747 9.87401 5.75315 9.93556C4.549 10.056 3.58568 11.0193 3.46795 12.2208C3.43851 12.5312 3.45992 12.8335 3.53217 13.1145C1.57074 13.1707 0 14.7736 0 16.751C0 16.9276 0.0133794 17.1016 0.0347865 17.2782C0.0481659 17.3638 0.120415 17.4254 0.203367 17.4254L16.1864 17.4254C16.2774 17.4254 16.363 17.3611 16.3898 17.2702L16.5075 16.8447Z" fill="#f38020"/><path d="M19.2664 11.2815C19.1888 11.2815 19.1058 11.2815 19.0282 11.2896C18.972 11.2896 18.9238 11.3324 18.9024 11.3886L18.5653 12.5633C18.4181 13.069 18.4743 13.5346 18.7205 13.8798C18.9453 14.1956 19.3252 14.3802 19.7828 14.4016L21.6265 14.514C21.6827 14.514 21.7309 14.5434 21.7603 14.5836C21.7897 14.6264 21.7951 14.6879 21.7817 14.7388C21.7523 14.8244 21.6693 14.8859 21.5783 14.894L19.657 15.0064C18.6161 15.0545 17.4976 15.8921 17.1042 16.9196L16.9624 17.2782C16.933 17.3478 16.9838 17.42 17.0614 17.42L23.6548 17.42C23.7324 17.42 23.802 17.3718 23.8234 17.2942C23.9358 16.8875 24 16.4567 24 16.0152C24 13.4062 21.8753 11.2815 19.2664 11.2815" fill="#faae40"/></svg>

<svg viewBox="0 0 24 24" xmlns="http://www.w3.org/2000/svg"><path d="M16.508 16.845c.147-.506.09-.972-.156-1.317-.224-.316-.604-.5-1.062-.522l-8.66-.112a.167.167 0 0 1-.133-.07.193.193 0 0 1-.021-.155.239.239 0 0 1 .203-.155l8.737-.112c1.033-.049 2.16-.886 2.553-1.914l.5-1.3a.261.261 0 0 0 .013-.169 5.676 5.676 0 0 0-5.547-4.444 5.692 5.692 0 0 0-5.389 3.86 2.589 2.589 0 0 0-1.793-.5 2.559 2.559 0 0 0-2.22 3.18A3.635 3.635 0 0 0 0 16.75c0 .177.013.35.035.527a.172.172 0 0 0 .168.147h15.983a.217.217 0 0 0 .204-.155l.117-.425Z" fill="#f38020"/><path d="M19.266 11.281c-.077 0-.16 0-.238.009-.056 0-.104.042-.126.099l-.337 1.174c-.147.506-.09.972.155 1.317.225.316.605.5 1.063.522l1.843.112c.057 0 .105.03.134.07.03.042.035.104.022.155a.239.239 0 0 1-.204.155l-1.921.112c-1.04.049-2.16.886-2.553 1.914l-.142.358c-.029.07.022.142.1.142h6.593a.172.172 0 0 0 .168-.126c.113-.407.177-.837.177-1.279a4.74 4.74 0 0 0-4.734-4.734" fill="#faae40"/></svg>
